X: 33
T: Piano Sonata no. 10 in G major, Andante
C: Ludwig van Beethoven
%%abc-version 2.0
%%abcx-abcm2ps-target-version 5.9.1 (29 Sep 2008)
%%abc-creator hum2abc beta
%%abcx-conversion-date 2021/01/11 11:42:08
%%abc-edited-by Craig Stuart Sapp
%%abcx-initial-encoding-date 2004/11/11/
%%gracespace 0 6 6
%%humdrum-veritas 152100670
%%humdrum-veritas-data 2978853810
%%linebreak <none>
%%barnumbers 0
L: 1/8
M: 4/4
Q: "Andante" 1/4=112
%%staves {1 2}
V: 1 clef=treble
V: 2 clef=bass
K: C
[V:1] G,/ [I:setbarnb 1]| 
[V:2] z/ | 
[V:1] .C z .B, z .C z .D z | 
[V:2] .[E,G,] z .[F,G,] z .G, z .G, z & C, z .D, z .E, z B,, z | 
[V:1] .[G,CE] z .[A,DF] z[B,4D4] | 
[V:2] .C, z .F,, zG,,2G,3/F,/ | 
[V:1] .[CG] z .[B,FG] z .[CEG] z .[DE^G] z | 
[V:2] .E, z .D, z .C, z .B,, z | 
[V:1] .[CEA] z .[CFA] z[B,2D2]-[B,3/D3/]G,/ | 
[V:2] .A,, z .F,, zG,,4 | 
[V:1] .C z B, z .[G,C] z .[G,D] z | 
[V:2] .[E,G,] z [F,G,] zz4 & .C, z .D, z .E, z .B,, z | 
[V:1] .[G,E] z .[C^F] z[D4G4] | 
[V:2] .C, z .[A,,D,] z[B,,4D,4] | 
[V:1] .[EA] z .[E_B] z[D4=B4] | 
[V:2] .[C,G,] z .[^C,G,] z[D,4G,4] | 
[V:1] .[^Fc] z .[FA] z .G z z3/ ]|:  
[V:2] .[D,A,] z .[D,C] z .[G,B,] z z3/ ]|:  
[V:1] G/ [I:setbarnb 9]| 
[V:2] z/[K:clef=treble] | 
[V:1] [c2g2][B2=f2][c2e2][c2e2] | 
[V:2] [E2G2][D2G2][C2G2][_B,2G2][K:clef=bass] | 
[V:1] {/de}[c2c'2][c2_b2][c2a2]-[c3/a3/]A/ | 
[V:2] [A,2F2][G,2E2][F,4F4] | 
[V:1] [A2a2][A2g2][A2f2][G2^c2e2] | 
[V:2] [F,2C2][E,2^C2][D,2D2]E,2 | 
[V:1] [F2A2d2][_E2A2=c2-][D2G2c2]B2 | 
[V:2] F,2^F,2G,2[K:clef=treble]G3/=F/ | 
[V:1] .[Gc] z .[FGB] z .[EGc] z .[DGd] z | 
[V:2] .=E z .D z .C z[K:clef=bass] .[B,,D,G,B,] z | 
[V:1] .[EGce] z .[FAdf] z .[DGBd] zg2- & z6G2- | 
[V:2] z6z B, & .[C,E,G,C] z .[F,,A,,D,F,] z .[G,,B,,D,G,] z z F, | 
[V:1] g2g2-g2f2 & G2_B2A4 | 
[V:2] C2^C2-C2D2 & E,2E,2F,4 | 
[V:1] .[Gce] z .[F=Bd] z .[EGc] zz2 | 
[V:2] .G, z .G,, z .C, zz2 | 
[V:1] B, z .C z .^C z .D z | 
[V:2] [D,2F,2].[E,2G,2].[E,2G,2].[F,2A,2] & .G,, z .C,, z .A,, z .D,, z | 
[V:1] .[^F,A,^D] z .[G,B,E] z[G,4B,4=F4]- | 
[V:2] B,, z .E,, z[D,,4D,4] | 
[V:1] [G,2B,2F2][=C2E2][C2D2][C2F2] | 
[V:2] C,,2G,2=F,2A,2 & z2C,2A,,2F,,2 | 
[V:1] .[CE] z .D z .C z z3/ :|]  
[V:2] .G, z .[F,B,] z .[E,G,] z z3/ & .G,, z G,,, z .C,, z z3/ :|]  
[V:1] z/ [I:setbarnb 21]| 
[V:2] G,/ | 
[V:1] zg2g2g2g- | 
[V:2] [E,2C2][F,2B,2][E,2C2][B,2D2] | 
[V:1] gg2g2ggg | 
[V:2] [C2E2][D2F2][B,4D4][K:clef=treble] | 
[V:1] zg2f2e2d- | 
[V:2] [E2G2][D2G2][C2G2][B,2^G2] | 
[V:1] dc2d cBAG & z2A2D4 | 
[V:2] [A,2A2][K:clef=bass]F,2G,4 | 
[V:1] gg2g2g2g- | 
[V:2] [E,2C2][F,2B,2][E,2C2][B,2D2][K:clef=treble] | 
[V:1] g.c'.c'.c' c'bag | 
[V:2] [C2E2][A,2^F2][B,4G4] | 
[V:1] z .e'.e'.e' e'd'^c'd'- | 
[V:2] C2[^C2^A2][D4B4] | 
[V:1] d'de^f- fgdB | 
[V:2] [D2=c2][D2A2][G,4G4] | 
[V:1] zg2g2g2g- ]|:  
[V:2] [E2G2][D2=F2][C2E2][_B,2E2][K:clef=bass] ]|:  
[V:1] g=f2e- efg^g & c2_B2A4 | 
[V:2] [A,2C2][G,2C2][F,4C4][K:clef=treble] | 
[V:1] aa2a2a2a- | 
[V:2] [F2A2][^C2G2][D2F2][G,2E2][K:clef=bass] | 
[V:1] ad'2d- dg2f/d/ | 
[V:2] D2=C2C2B,2 & F,2^F,2G,4 | 
[V:1] cg2g2g2g- | 
[V:2] [E,2C2][F,2B,2][E,2C2][B,2D2] | 
[V:1] gg2g2g2B- | 
[V:2] [C2E2][D2F2][B,2D2][K:clef=treble][F2G2] | 
[V:1] Bc2^c2d2a- | 
[V:2] [E2G2][_B,2G2][A,2G2][A,2F2][K:clef=bass] | 
[V:1] a=c2B cGEC | 
[V:2] [G,2E2][G,2D2].[C,2C2]z2 | 
[V:1] zB,2C z^C2D | 
[V:2] z[D,2F,2][E,G,] z[E,2G,2][F,A,] & G,,2C,, zA,,2D,, z | 
[V:1] z^D2E z=F2F- | 
[V:2] z[^F,2A,2][G,B,] z[G,2B,2][G,B,]- & B,,2E,, z[D,,4D,4] | 
[V:1] FF2[C2E2][C2D2][CF]- |[1 
[V:2] [G,B,][G,2B,2]G,2F,2A,- & C,,2C,2A,,2F,,2 | 
[V:1] [CF][C2E2]DC2z G | 
[V:2] A,G,2[F,B,][E,2G,2]z2[K:clef=treble] & G,,2G,,,2C,,2z2 | 
[V:1] gg2g2g2g :|][2 
[V:2] [E2G2][D2F2][C2E2][_B,2E2][K:clef=bass] :|]  
[V:1] [CF][C2E2]DC2z G | 
[V:2] A,G,2[F,B,][E,2G,2]z2 & G,,2G,,,2C,,2z2 | 
[V:1] .c.[Gc] z .[FGB] z .[EGc] z .[FGd] | 
[V:2] C, E C, D C, C C, B, | 
[V:1] z .[Gce] z .[Fcf] z .[Fcd] z .[FBd] | 
[V:2] C, _B, C, A, C, _A, C, G, | 
[V:1] z .[GBdg] z .[Gcg] z .[Bfg] z .[_Be^g] | 
[V:2] C,, F, C,, E, C,, D, C,, C, | 
[V:1] z4z[=B3d3] & z .[Afa] z .[Afa] z_A2G/F/ | 
[V:2] F,, F, D,, D, G,,G,3 | 
[V:1] z .[Gc] z .[FGB] z .[EGc] z .[DGd] | 
[V:2] C, E C, D C, C B,, B, | 
[V:1] z [EGce] z [^Fc_e^f] z[G2d2g2][Gdg] | 
[V:2] C, C A,, A, B,,[B,2D2][B,D] | 
[V:1] z [A=ega] z [_Beg_b] z[=B2d2g2=b2][Bdgb] | 
[V:2] C, C ^C, ^C D,[D2G2][DG] | 
[V:1] z [c^fc'] z [cfa] zg2(3d/B/G/ ]|:  
[V:2] D, D D, D[G,,2G,2]z2 ]|:  
[V:1] z .[G_B^cg] z .[GBc=f] z .[GBce] z .[GB=ce] | 
[V:2] G, [_B,^CE] G, [B,CE] G, [B,CE] G, [B,=CE] | 
[V:1] z [cfc'] z [_Be_b] z [Acfa] z [A^cfa] | 
[V:2] A, [CF] G, [CE] F, [CF] F, [^CF] | 
[V:1] z [Adfa] z [G_B^ceg] z [FAdf] z [EGBce] | 
[V:2] F, [DF] F, [_B,^CE] F, [A,D] F,, [G,B,] | 
[V:1] z [DFAd] z [=C_E^FA=c] z[=B,3D3G3=B3] | 
[V:2] F,, [F,A,] ^F,, [^F,A,] G,,G,2(3=F,/E,/D,/ | 
[V:1] z .[=EGc] z .[FGB] z .[EGc] z .[FGd] | 
[V:2] C, C C, D C, C C, B, | 
[V:1] z [Gce] z [Fcf] z [Fcd] z [FBd] | 
[V:2] C, _B, C, A, C, _A, C, G, | 
[V:1] z [GBdg] z [G_B^cg] z [GBcg] z [FAdf] | 
[V:2] F, [B,D] F, [_B,^CE] F, [B,CE] F, [A,D] | 
[V:1] z [EG=ce] z [FGd] zc2(3G/E/C/ | 
[V:2] G,, [G,C] G,, [G,B,] C, zz2 | 
[V:1] z B, z C z ^C z D | 
[V:2] z [D,F,] z [E,G,] z [E,G,] z [F,A,] & G,, z C,, z A,, z D,, z | 
[V:1] z ^D z E z =FFF | 
[V:2] z [^F,A,] z [G,B,] z [G,B,][G,B,][G,B,] & B,, z E,, z[D,,4D,4] | 
[V:1] z F z .[CE] z [CD] z [CF] |[1 
[V:2] z [G,B,] z .G, z F, z A, & C,, z C, z A,, z F,, z | 
[V:1] z [CE] z D z CG.G :|][2 
[V:2] z G, z [F,B,]z4 & G,, z G,,, z C,, zz2 :|]  
[V:1] z [CE] z D z C[K:clef=bass]E,E, | 
[V:2] z G, z [F,B,]z4 & G,, z G,,, z C,, zz2 | 
[V:1] [K:clef=treble]z .[DFc] z [DFB] z .[DF_A] z .[DFG] | 
[V:2] G,, z G, z G, z G, z | 
[V:1] z .[cdf] z .[Bdf] z .[_Adf] z .[Gdf] | 
[V:2] G,, z G, z G, z G, z | 
[V:1] z .[Bd_a] z .[Bdg] z .[Bd^f] z .[Bd=f] | 
[V:2] G,, z G, z G, z G, z | 
[V:1] z .[_Bdf] z .[=Adf] z .[_Adf] z .[Gdf] | 
[V:2] G, z G, z G, z G, z | 
[V:1] z/ E/c/G/ z/ F/=B/G/ z/ ^F/c/G/ z/ G/d/G/ | 
[V:2] C2D2E2B,2 | 
[V:1] z/ G/e/c/ z/ A/f/d/ z/ G/d/B/ d/B/d/B/ | 
[V:2] C2F,2G,3F, | 
[V:1] z/ G/g/c/ z/ G/g/f/ z/ G/g/e/ z/ ^G/^g/d/ | 
[V:2] E,2D,2C,2B,,2 | 
[V:1] z/ A/a/c/ z/ A/a/f/ d/B/f/d/ B/G/F/D/ | 
[V:2] A,,2F,,2G,,4 | 
[V:1] z/ E/c/G/ z/ F/B/G/ z/ ^F/c/G/ z/ D/d/G/ | 
[V:2] C,2D,2E,2B,,2 | 
[V:1] z/ E/e/G/ z/ ^F/^f/c/ z/ d/g/f/ g/d/B/G/ | 
[V:2] C,2A,,2B,,4 | 
[V:1] z/ e/a/g/ z/ e/^a/g/ z/ g/b/a/ b/g/d/B/ | 
[V:2] C,2^C,2D,4 | 
[V:1] d/c/e/c/ B/A/G/^F/ G/A/B/c/ d/e/=f/^f/ | 
[V:2] D,,2D,2G,,4 | 
[V:1] z/ G/g/c/ z/ G/=f/B/ z/ G/e/c/ z/ G/e/c/ | 
[V:2] E2D2C2_B,2 | 
[V:1] z/ c/c'/f/ z/ c/_b/e/ z/ c/a/f/ a/f/a/f/ | 
[V:2] A,2G,2F,4 | 
[V:1] z/ A/a/c/ z/ A/g/^c/ z/ A/f/d/ z/ G/e/c/ | 
[V:2] F,2E,2D,2E,2 | 
[V:1] z/ F/d/A/ z/ _E/c/A/ z/ D/c/G/ B/G/D/G/ | 
[V:2] F,2^F,2G,3=F, | 
[V:1] z/ C/c/G/ z/ F/B/G/ z/ E/c/G/ z/ D/d/G/ | 
[V:2] E,2D,2C,2B,,2 | 
[V:1] z/ G/e/c/ z/ A/f/d/ z/ G/d/B/ d/B/d/B/ | 
[V:2] C,2F,,2G,,3F,, | 
[V:1] z/ G/g/c/ z/ _B/g/^c/ z/ A/g/c/ z/ A/f/d/ | 
[V:2] E,,2E,2F,,2F,2 & E,,4F,,4 | 
[V:1] z/ G/e/=c/ z/ F/d/B/ z/ E/c/G/ F/E/D/C/ | 
[V:2] G,,2G,2E,2z2 & G,,4C,2z2 | 
[V:1] z8 | 
[V:2] z/ D,/B,/F,/ z/ E,/C/G,/ z/ E,/^C/G,/ z/ F,/D/A,/ & G,,2C,, zA,,2D,, z | 
[V:1] z4z/ G,/=F/B,/ F/B,/F/B,/ | 
[V:2] z/ ^F,/^D/A,/ z/ G,/E/B,/z4 & B,,2E,, z[=D,,4=D,4] | 
[V:1] z/ G,/F/B,/ z/ G,/E/C/ z/ F,/D/C/ z/ A,/F/C/ | 
[V:2] C,,2C,2A,,2F,,2 | 
[V:1] z/ G,/E/C/ z/ F,/D/B,/ z/ C/D/E/ F/G/A/B/ | 
[V:2] G,,2G,,,2C,, zz2 | 
[V:1] .[Gc] z .[GB] z .[Gc] z .[Gd] z | 
[V:2] .[CE] z .[DF] z .E z .[B,F] z | 
[V:1] .[Ge] z .[Af] z .[Gd] zz2 | 
[V:2] .[CE] z .[F,D] z .[G,B,] zz2[K:clef=treble] | 
[V:1] .g z .[fg] z .[eg] z .[d^g] z | 
[V:2] .[EG] z .[DG] z .[CG] z .[B,E] z | 
[V:1] .[ca] zz2.[A,DF] zz2 | 
[V:2] .[A,E] zz2[K:clef=bass].[F,,A,,D,F,] zz2 | 
[V:1] .[Gce] zz2.[B,D] zz2 | 
[V:2] .[G,CE] zz2.[G,,B,,D,F,] zz2 | 
[V:1] [c2e2g2c'2]z2z2z3/ |]  
[V:2] [C,,2E,,2G,,2C,2]z2z2z3/ |]  


